build/assets/img/svg/icon-time.svg

<svg width="100" height="100" viewBox="0 0 100 100" fill="none" xmlns="http://www.w3.org/2000/svg">
<g clip-path="url(#clip0)">
<path d="M50 94C40.3794 94 31.6164 90.381 25.0359 84.4488C17.6392 77.7807 13 68.1901 13 57.5316M72.0238 28.2246C81.1109 34.8695 87 45.5227 87 57.5316C87 64.1741 85.1982 70.4018 82.0501 75.7658M34.1429 24.5726C36.5112 23.4637 39.0181 22.5955 41.631 22" stroke="#C43B55" stroke-width="3" stroke-linecap="round"/>
<path d="M11.5768 73.6702C7.38906 63.6692 7.33682 52.9843 10.6392 43.5614C14.3512 32.9698 22.3017 23.9725 33.3817 19.333M89.5398 67.9339C86.5875 80.2727 78.0765 91.0319 65.5927 96.2592C58.6876 99.1506 51.4293 99.9883 44.4829 99.0506M76.8471 26.9654C79.0308 28.9448 81.0246 31.1729 82.7809 33.6298" stroke="#B4D1FA" stroke-width="3" stroke-linecap="round"/>
<path d="M27.323 27.9709C27.1432 27.7721 26.9249 27.612 26.6812 27.5004C26.4376 27.3888 26.1738 27.328 25.9058 27.3217C25.6379 27.3154 25.3715 27.3638 25.1229 27.4639C24.8743 27.5639 24.6487 27.7136 24.4598 27.9038L20.8809 31.4827C20.69 31.6706 20.5395 31.8955 20.4388 32.1436C20.338 32.3917 20.289 32.6578 20.2949 32.9256C20.3008 33.1933 20.3613 33.457 20.4729 33.7005C20.5844 33.944 20.7446 34.1621 20.9435 34.3414C21.2987 34.6834 21.7644 34.8871 22.2567 34.9158C22.7489 34.9445 23.2352 34.7963 23.6277 34.498L25.6901 36.5559L29.5017 32.7488L27.4751 30.6819C27.7813 30.2878 27.9346 29.7962 27.9067 29.2979C27.8787 28.7996 27.6714 28.3282 27.323 27.9709Z" fill="#0A3D76"/>
<circle cx="49.9999" cy="57.421" r="31.3158" fill="#D3E1F4"/>
<path d="M50.3756 91.0765C43.7544 91.0773 37.2816 89.1147 31.7758 85.4368C26.27 81.7589 21.9785 76.5309 19.4441 70.4139C16.9096 64.2969 16.246 57.5658 17.5372 51.0717C18.8284 44.5776 22.0164 38.6122 26.698 33.93C31.3796 29.2477 37.3446 26.0589 43.8385 24.7669C50.3325 23.4748 57.0637 24.1375 63.181 26.6711C69.2983 29.2048 74.5269 33.4955 78.2056 39.0008C81.8842 44.5061 83.8477 50.9787 83.8477 57.5999C83.8371 66.4744 80.3073 74.9824 74.0325 81.2581C67.7577 87.5337 59.2501 91.0646 50.3756 91.0765ZM50.3756 27.9975C44.5183 27.9957 38.792 29.7311 33.9211 32.9842C29.0501 36.2372 25.2534 40.8618 23.0111 46.2729C20.7688 51.6841 20.1816 57.6387 21.3239 63.3835C22.4661 69.1284 25.2865 74.4054 29.4283 78.5472C33.57 82.6889 38.8471 85.5093 44.592 86.6516C50.3368 87.7939 56.2914 87.2067 61.7025 84.9644C67.1137 82.7221 71.7382 78.9253 74.9913 74.0544C78.2443 69.1835 79.9797 63.4572 79.978 57.5999C79.9673 49.7521 76.8451 42.2288 71.2959 36.6796C65.7467 31.1304 58.2234 28.0082 50.3756 27.9975Z" fill="#0A3D76"/>
<path d="M50.8698 30.579H50.1855C49.6333 30.579 49.1855 31.0267 49.1855 31.579V34.0527C49.1855 34.6049 49.6333 35.0527 50.1855 35.0527H50.8698C51.422 35.0527 51.8698 34.6049 51.8698 34.0527V31.579C51.8698 31.0267 51.422 30.579 50.8698 30.579Z" fill="#0A3D76"/>
<path d="M31.498 38.2145L31.09 38.6224C30.6995 39.0128 30.6993 39.646 31.0898 40.0366L32.864 41.8114C33.2544 42.2019 33.8876 42.2021 34.2782 41.8116L34.6861 41.4038C35.0767 41.0133 35.0768 40.3802 34.6864 39.9896L32.9122 38.2148C32.5218 37.8242 31.8886 37.8241 31.498 38.2145Z" fill="#0A3D76"/>
<path d="M27.1593 56.5264H24.2383C23.686 56.5264 23.2383 56.9741 23.2383 57.5264V58.2106C23.2383 58.7629 23.686 59.2106 24.2383 59.2106H27.1593C27.7116 59.2106 28.1593 58.7629 28.1593 58.2106V57.5264C28.1593 56.9741 27.7116 56.5264 27.1593 56.5264Z" fill="#0A3D76"/>
<path d="M32.8603 73.281L31.0893 75.0527C30.6989 75.4432 30.699 76.0764 31.0896 76.4669L31.4975 76.8747C31.8881 77.2651 32.5213 77.265 32.9117 76.8744L34.6827 75.1028C35.0732 74.7122 35.0731 74.0791 34.6825 73.6886L34.2745 73.2808C33.8839 72.8903 33.2508 72.8905 32.8603 73.281Z" fill="#0A3D76"/>
<path d="M50.8698 80.2368H50.1855C49.6333 80.2368 49.1855 80.6845 49.1855 81.2368V83.7105C49.1855 84.2628 49.6333 84.7105 50.1855 84.7105H50.8698C51.422 84.7105 51.8698 84.2628 51.8698 83.7105V81.2368C51.8698 80.6845 51.422 80.2368 50.8698 80.2368Z" fill="#0A3D76"/>
<path d="M66.5574 73.2684L66.1495 73.6763C65.759 74.0668 65.759 74.7 66.1495 75.0905L67.9208 76.8618C68.3113 77.2524 68.9445 77.2524 69.335 76.8618L69.7429 76.4539C70.1334 76.0634 70.1334 75.4303 69.7429 75.0397L67.9716 73.2684C67.5811 72.8779 66.9479 72.8779 66.5574 73.2684Z" fill="#0A3D76"/>
<path d="M76.3697 56.5264H73.896C73.3437 56.5264 72.896 56.9741 72.896 57.5264V58.2106C72.896 58.7629 73.3437 59.2106 73.896 59.2106H76.3697C76.922 59.2106 77.3697 58.7629 77.3697 58.2106V57.5264C77.3697 56.9741 76.922 56.5264 76.3697 56.5264Z" fill="#0A3D76"/>
<path d="M67.9278 38.2165L66.153 39.9906C65.7624 40.3811 65.7623 41.0143 66.1528 41.4049L66.5606 41.8128C66.9511 42.2034 67.5842 42.2035 67.9748 41.8131L69.7496 40.0389C70.1402 39.6485 70.1403 39.0153 69.7498 38.6247L69.342 38.2167C68.9516 37.8261 68.3184 37.826 67.9278 38.2165Z" fill="#0A3D76"/>
<path d="M55.0015 16.7106H46.5015V27.4474H55.0015V16.7106Z" fill="#0A3D76"/>
<path d="M57.4886 10H44.0138C43.6581 10 43.3696 10.2884 43.3696 10.6442V17.8558C43.3696 18.2116 43.6581 18.5 44.0138 18.5H57.4886C57.8444 18.5 58.1328 18.2116 58.1328 17.8558V10.6442C58.1328 10.2884 57.8444 10 57.4886 10Z" fill="#0A3D76"/>
<path d="M70.6594 57.5238V57.5999C70.6405 60.2336 70.1011 62.8377 69.0723 65.2622C68.0435 67.6868 66.5456 69.8841 64.6647 71.7278C64.6647 71.7278 64.5707 71.7278 64.5573 71.7278C60.7849 75.4651 55.6859 77.5562 50.3757 77.5436H50.3444C47.7293 77.5517 45.1384 77.042 42.7213 76.0438C40.3042 75.0457 38.1086 73.5788 36.2612 71.7278H36.3194L50.5278 57.4209V37.4415C53.1576 37.4127 55.7653 37.9235 58.1899 38.9423C60.6145 39.9611 62.961 41.4975 64.781 43.3959C68.5298 47.1438 70.6431 52.2229 70.6594 57.5238Z" fill="#C1272D"/>
<path d="M64.7718 43.3915C61.1839 39.5262 55.8758 37.4237 50.5366 37.4237V57.421L64.7718 43.3915Z" fill="#219653"/>
<path d="M52.364 59.0494C50.7473 60.7291 48.353 60.8468 46.8257 59.1063L46.6933 58.9489C45.1627 57.1903 45.6385 54.838 47.5066 53.4721C51.7143 50.415 60.5673 45.1524 64.4388 42.7263C64.5852 42.6216 64.7652 42.575 64.9439 42.5957C65.1227 42.6164 65.2873 42.7028 65.4059 42.8382C65.5244 42.9736 65.5883 43.1482 65.5852 43.3281C65.5822 43.508 65.5122 43.6803 65.3891 43.8115C61.9101 47.8531 55.9828 55.3138 52.364 59.0494Z" fill="#0A3D76"/>
</g>
<defs>
<clipPath id="clip0">
<rect width="100" height="100" fill="white"/>
</clipPath>
</defs>
</svg>

<svg width="100" height="100" fill="none" xmlns="http://www.w3.org/2000/svg"><g clip-path="url(#clip0)"><path d="M50 94c-9.62 0-18.384-3.619-24.964-9.551C17.639 77.78 13 68.19 13 57.532m59.024-29.307C81.11 34.87 87 45.523 87 57.532c0 6.642-1.802 12.87-4.95 18.234M34.143 24.573A37.089 37.089 0 0141.63 22" stroke="#C43B55" stroke-width="3" stroke-linecap="round"/><path d="M11.577 73.67c-4.188-10-4.24-20.686-.938-30.109 3.712-10.591 11.663-19.588 22.743-24.228m56.158 48.6c-2.953 12.34-11.464 23.099-23.947 28.326a40.46 40.46 0 01-21.11 2.792m32.364-72.086a41.801 41.801 0 015.934 6.665" stroke="#B4D1FA" stroke-width="3" stroke-linecap="round"/><path d="M27.323 27.97a1.973 1.973 0 00-2.863-.066l-3.58 3.579a1.964 1.964 0 00.064 2.858 2.067 2.067 0 002.684.157l2.062 2.058 3.812-3.807-2.027-2.067a2.067 2.067 0 00-.152-2.711z" fill="#0A3D76"/><circle cx="50" cy="57.421" r="31.316" fill="#D3E1F4"/><path d="M50.376 91.076A33.478 33.478 0 1183.848 57.6a33.517 33.517 0 01-33.472 33.476zm0-63.078A29.61 29.61 0 1079.978 57.6a29.643 29.643 0 00-29.602-29.603z" fill="#0A3D76"/><path d="M50.87 30.579h-.684a1 1 0 00-1 1v2.474a1 1 0 001 1h.684a1 1 0 001-1v-2.474a1 1 0 00-1-1zm-19.372 7.636l-.408.407a1 1 0 000 1.415l1.774 1.774a1 1 0 001.414 0l.408-.407a1 1 0 000-1.414l-1.774-1.775a1 1 0 00-1.414 0zM27.16 56.526h-2.922a1 1 0 00-1 1v.685a1 1 0 001 1h2.921a1 1 0 001-1v-.685a1 1 0 00-1-1zm5.7 16.755l-1.77 1.772a1 1 0 000 1.414l.407.408a1 1 0 001.415 0l1.77-1.772a1 1 0 000-1.414l-.407-.408a1 1 0 00-1.415 0zm18.01 6.956h-.684a1 1 0 00-1 1v2.474a1 1 0 001 1h.684a1 1 0 001-1v-2.474a1 1 0 00-1-1zm15.687-6.969l-.407.408a1 1 0 000 1.415l1.77 1.77a1 1 0 001.415 0l.408-.407a1 1 0 000-1.414l-1.771-1.772a1 1 0 00-1.415 0zm9.813-16.742h-2.474a1 1 0 00-1 1v.685a1 1 0 001 1h2.474a1 1 0 001-1v-.685a1 1 0 00-1-1zm-8.442-18.309l-1.775 1.774a1 1 0 000 1.414l.408.408a1 1 0 001.414 0l1.775-1.774a1 1 0 000-1.414l-.408-.408a1 1 0 00-1.414 0zM55.002 16.71h-8.5v10.737h8.5V16.711z" fill="#0A3D76"/><path d="M57.489 10H44.014a.644.644 0 00-.644.644v7.212c0 .356.288.644.644.644h13.475a.644.644 0 00.644-.644v-7.212a.644.644 0 00-.644-.644z" fill="#0A3D76"/><path d="M70.66 57.524v.076a19.983 19.983 0 01-5.995 14.128h-.108a20.082 20.082 0 01-14.181 5.816h-.032a19.81 19.81 0 01-14.083-5.816h.058L50.528 57.42V37.44c2.63-.028 5.237.482 7.662 1.501 2.425 1.02 4.771 2.556 6.591 4.454a20.065 20.065 0 015.878 14.128z" fill="#C1272D"/><path d="M64.772 43.392c-3.588-3.866-8.896-5.968-14.235-5.968V57.42l14.235-14.03z" fill="#219653"/><path d="M52.364 59.05c-1.617 1.68-4.011 1.797-5.538.056l-.133-.157c-1.53-1.759-1.054-4.111.814-5.477 4.207-3.057 13.06-8.32 16.932-10.746a.725.725 0 01.95 1.086c-3.479 4.041-9.406 11.502-13.025 15.237z" fill="#0A3D76"/></g><defs><clipPath id="clip0"><path fill="#fff" d="M0 0h100v100H0z"/></clipPath></defs></svg>
